X:1222
T:Högmans schottis
R:Schottis
Z:Göran Hed 2009-02-20
O:Sandviken, Gästrikland
D:Sandvikens Spelmanslag CD Men nu´lå
M: 2/4
L: 1/16
K:G
|:g2Bc d2d2| dBGA B2B2| A2AB c2e2| dcBc d2d2|
g2Bc d2d2| dBGA B2B2| A2AB c2e2| dcBA G4:|
K:C
|:cege f2f2| GBdf e2c2| egec fafd| Bdgf e2c2|
cege f2f2| GBdf e2c2| egec fafd| BdgB c4:|

(:musicend:)

(:music:)
